!!!OTL: Herzens Schluessel. / b. Andere Art.
!!!ARE: Europa, Mitteleuropa, Deutschland
!!!SCT: A0135B
!!!TXL: @@GMH
!!!YEM: Copyright 1995, estate of Helmut Schaffrath.
**kern	**text
!! Mixed meters:  4/2; 6/2
*M4/2	*
*met(c|)	*
*clefC3	*
*k[b-]	*
*F:	*
{1F	Von
=1	=1
2F	dei-
2F	-net
2A	wil-
2F	-len
=2	=2
1c	bin
1c	ich
=3	=3
1A	hie,
2r}	.
{2c	herʒ-
=4	=4
1c	-lieb,
2c	ver-
*lig	*
1B-	-nimm
=5-	=5-
.	.
2A	.
*Xlig	*
1G	mein
=6	=6
1F}	wort!}
{1F	All
=7	=7
2F	mein
2F	hoffnung
2A	.
2F	ſetʒ
=8	=8
1c	ich
1c	ʒu
=9	=9
1A	dir,
2r}	.
{2c	dar-
=10	=10
1c	-auß
2c	treib
*lig	*
1B-	ich
=11-	=11-
.	.
2A	.
*Xlig	*
1G	kein
=12	=12
1F	ſpot,}
2r}	.
{2c	Laß
=13	=13
2c	mich
2c	der
2c	trew
2B-	ge-
=14	=14
1A	-nie-
2G}	-ßen,
{2G	dein
=15	=15
*M6/2	*
1A	ſte-
2B-	-ter
*lig	*
2c/	die-
2A	.
*Xlig	*
2B-	-ner
=16	=16
*M4/2	*
1G	ſein,
2r}	.
{2c	thu
=17	=17
2c/	mir
2c/	dein
2c/	herʒ
2A	auf-
=18	=18
*M6/2	*
*lig	*
1F	-ſchlie-
2c/	.
*Xlig	*
1A}	-ßen,
{2c/	ſchleuß
=19	=19
*M4/2	*
1c	mich
1c	herʒ-
=20	=20
*lig	*
2A	-lieb
2B-	.
*Xlig	*
1G	dar-
=21	=21
1F/ll}	-ein.
==	==
!!!GTL: Liebeslieder
!!!AGN: Romanze, Ballade, Lied
!! Forster IV. 1556 No. 15.
!!!ONB: ESAC (Essen Associative Code) Database: ALTDEU
!!!AMT: irregular
!!!AIN: vox
!!!EED: Helmut Schaffrath
!!!EEV: 1.0
!!!RDF**kern: l = terminal long
!!!URL-scan: https://rosdok.uni-rostock.de/mcrviewer/recordIdentifier/rosdok_ppn738218359/iview2/phys_0304.iview2?x=-2231.2783251231526&y=-197.00098522892222&scale=0.2314709236031927&rotation=0&layout=singlePageLayout&logicalDiv=log_0009
!!!ENC: Anna Maria Matuszewska
!!!EEV: 2024/26/02
*-	*-
